icons/stall.svg

<svg fill="none" stroke="currentColor" stroke-linecap="round" stroke-linejoin="round" stroke-width="1.5" viewBox="0 0 24 24"><path d="M0 0h24v24H0z"/><path d="M20 12v9.015a.985.985 0 0 1-.985.985h-4.03a.985.985 0 0 1-.985-.985v-4.03a1 1 0 0 0-.288-.697 1 1 0 0 0-.697-.288h-2.03a1 1 0 0 0-.697.288 1 1 0 0 0-.288.697v4.03a.985.985 0 0 1-.985.985h-4.03A.985.985 0 0 1 4 21.015V12M5.132 2c-.702 0-1.353.369-1.715.971L1 7v.007a3.007 3.007 0 0 0 2.992 2.992 3 3 0 0 0 2.675-1.652A2.98 2.98 0 0 0 9.334 10 2.98 2.98 0 0 0 12 8.347 2.98 2.98 0 0 0 14.666 10a2.98 2.98 0 0 0 2.667-1.653 3 3 0 0 0 2.675 1.652A3.007 3.007 0 0 0 23 7.007V7l-2.417-4.029A2 2 0 0 0 18.868 2z"/></svg>

<?xml version="1.0" encoding="UTF-8" standalone="no"?>
<!DOCTYPE svg PUBLIC "-//W3C//DTD SVG 1.1//EN" "http://www.w3.org/Graphics/SVG/1.1/DTD/svg11.dtd">
<svg width="100%" height="100%" viewBox="0 0 24 24" version="1.1" xmlns="http://www.w3.org/2000/svg" xmlns:xlink="http://www.w3.org/1999/xlink" xml:space="preserve" xmlns:serif="http://www.serif.com/" style="fill-rule:evenodd;clip-rule:evenodd;stroke-linejoin:round;stroke-miterlimit:2;">
    <g id="stall" transform="matrix(1,0,0,1,-29.588871,0)">
        <g id="stall1" serif:id="stall" transform="matrix(1,0,0,1,29.588871,0)">
            <rect x="0" y="0" width="24" height="24" style="fill:none;"/>
            <path d="M20,12L20,21.015C20,21.559 19.559,22 19.015,22L14.985,22C14.441,22 14,21.559 14,21.015L14,16.985C14,16.723 13.896,16.473 13.712,16.288C13.527,16.104 13.277,16 13.015,16L10.985,16C10.723,16 10.473,16.104 10.288,16.288C10.104,16.473 10,16.723 10,16.985L10,21.015C10,21.559 9.559,22 9.015,22L4.985,22C4.441,22 4,21.559 4,21.015L4,12" style="fill:none;stroke:white;stroke-width:1.5px;"/>
            <path d="M5.132,2C4.43,2 3.779,2.369 3.417,2.971C2.545,4.425 1,7 1,7L1,7.007C1,8.648 2.351,9.999 3.992,9.999C5.123,9.999 6.161,9.358 6.667,8.347C7.169,9.358 8.205,10 9.334,10C10.462,10 11.498,9.358 12,8.347C12.502,9.358 13.538,10 14.666,10C15.795,10 16.831,9.358 17.333,8.347C17.839,9.358 18.877,9.999 20.008,9.999C21.649,9.999 23,8.648 23,7.007L23,7C23,7 21.455,4.425 20.583,2.971C20.221,2.369 19.57,2 18.868,2L5.132,2Z" style="fill:none;fill-rule:nonzero;stroke:white;stroke-width:1.5px;"/>
        </g>
    </g>
</svg>
